X: 862
M: C
L: 1/8
K: Gmix
V: 1
|: c |\
=Bd-de/^f/ g/f/e/d/ e/d/c/B/ | c/B/A/G/ ^FA G/G/G G :|
V: 2 clef=bass middle=d
z |\
g2g2 g2g2 | f2f2 f2f2 |\
g2g2 g2g2 | d2d2 G2G :|\
|: z |
g2g2 g2g2 | f2f2 f2f2 |\
g2g2 g2g2 | d2d2 G2G :|

